assets/icon_list_m@1x.svg

<svg width="16px" height="14px" viewBox="0 0 16 14" version="1.1" xmlns="http://www.w3.org/2000/svg"><defs><path d="M0,3.32630157 C0,2.77790036 0.444630861,2.33333333 1.00087166,2.33333333 L14.9991283,2.33333333 C15.5518945,2.33333333 16,2.7736791 16,3.32630157 L16,4.00703176 C16,4.55543298 15.5553691,5 14.9991283,5 L1.00087166,5 C0.448105505,5 0,4.55965424 0,4.00703176 L0,3.32630157 Z M0,8.65963491 C0,8.11123369 0.444630861,7.66666667 1.00087166,7.66666667 L14.9991283,7.66666667 C15.5518945,7.66666667 16,8.10701243 16,8.65963491 L16,9.34036509 C16,9.88876631 15.5553691,10.3333333 14.9991283,10.3333333 L1.00087166,10.3333333 C0.448105505,10.3333333 0,9.89298757 0,9.34036509 L0,8.65963491 Z M0,13.9929682 C0,13.444567 0.444630861,13 1.00087166,13 L14.9991283,13 C15.5518945,13 16,13.4403458 16,13.9929682 L16,14.6736984 C16,15.2220996 15.5553691,15.6666667 14.9991283,15.6666667 L1.00087166,15.6666667 C0.448105505,15.6666667 0,15.2263209 0,14.6736984 L0,13.9929682 Z" id="path-1"></path></defs><mask id="mask-2" fill="white"><use></use></mask><use id="icon_list_m" fill="#333333"></use></g></g></g></svg>

<svg width="16" height="14" xmlns="http://www.w3.org/2000/svg" xmlns:xlink="http://www.w3.org/1999/xlink"><defs><path d="M0 3.326a.995.995 0 0 1 1-.993h14c.552 0 1 .44 1 .993v.681A.995.995 0 0 1 15 5H1c-.552 0-1-.44-1-.993zM0 8.66a.995.995 0 0 1 1-.993h14c.552 0 1 .44 1 .993v.68a.995.995 0 0 1-1 .993H1c-.552 0-1-.44-1-.993zm0 5.333A.995.995 0 0 1 1 13h14c.552 0 1 .44 1 .993v.68a.995.995 0 0 1-1 .994H1c-.552 0-1-.44-1-.993z" id="a"/></defs><use fill="#333" xlink:href="#a" transform="translate(0 -2)" fill-rule="evenodd"/></svg>
